static/assets/img/icons/theme/home/bulb-2.svg

<svg height="24" viewBox="0 0 24 24" width="24" xmlns="http://www.w3.org/2000/svg"><g fill="none" fill-rule="evenodd"><path d="m0 0h24v24h-24z" opacity="0"/><g fill="#000"><path d="m5.11245763 2.03825554c1.94953026-.69217036 4.24528699-1.03825554 6.88727017-1.03825554 2.6420623 0 4.9379717.34610591 6.887728 1.03831773l.0000033-.00000943c1.0409211.36955279 1.5851726 1.51296779 1.2156199 2.55388888-.0353047.09944281-.0784241.19593557-.1289545.28857453l-4.9741245 9.11922829h-6l-4.97416438-9.11931928c-.52892319-.96969251-.17160905-2.18456057.79808346-2.71348376.09262774-.05052423.1891084-.09363927.28853855-.12894142z" opacity=".3"/><path d="m10 20h4c0 1.1045695-.8954305 2-2 2-1.1045695 0-2-.8954305-2-2z" opacity=".3"/><path d="m13 10v8c0 .5522847-.4477153 1-1 1s-1-.4477153-1-1v-8h-.5c-.2761424 0-.5-.22385763-.5-.5s.2238576-.5.5-.5h3c.2761424 0 .5.22385763.5.5s-.2238576.5-.5.5z" opacity=".3"/><path d="m9 18c-.55228475 0-1-.4477153-1-1s.44771525-1 1-1c-.55228475 0-1-.4477153-1-1s.44771525-1 1-1h6c.5522847 0 1 .4477153 1 1s-.4477153 1-1 1c.5522847 0 1 .4477153 1 1s-.4477153 1-1 1c.5522847 0 1 .4477153 1 1s-.4477153 1-1 1h-6c-.55228475 0-1-.4477153-1-1s.44771525-1 1-1z"/></g></g></svg>

<svg width="24px" height="24px" viewBox="0 0 24 24" version="1.1" xmlns="http://www.w3.org/2000/svg" xmlns:xlink="http://www.w3.org/1999/xlink">
    <title>Icon For Bulb#2</title>
    <g stroke="none" stroke-width="1" fill="none" fill-rule="evenodd">
        <rect opacity="0" x="0" y="0" width="24" height="24"></rect>
        <path d="M5.11245763,2.03825554 C7.06198789,1.34608518 9.35774462,1 11.9997278,1 C14.6417901,1 16.9376995,1.34610591 18.8874558,2.03831773 L18.8874591,2.0383083 C19.9283802,2.40786109 20.4726317,3.55127609 20.103079,4.59219718 C20.0677743,4.69163999 20.0246549,4.78813275 19.9741245,4.88077171 L15,14 L9,14 L4.02583562,4.88068072 C3.49691243,3.91098821 3.85422657,2.69612015 4.82391908,2.16719696 C4.91654682,2.11667273 5.01302748,2.07355769 5.11245763,2.03825554 Z" fill="#000000" opacity="0.3"></path>
        <path d="M10,20 L14,20 L14,20 C14,21.1045695 13.1045695,22 12,22 L12,22 C10.8954305,22 10,21.1045695 10,20 Z" fill="#000000" opacity="0.3"></path>
        <path d="M13,10 L13,18 C13,18.5522847 12.5522847,19 12,19 C11.4477153,19 11,18.5522847 11,18 L11,10 L10.5,10 C10.2238576,10 10,9.77614237 10,9.5 C10,9.22385763 10.2238576,9 10.5,9 L13.5,9 C13.7761424,9 14,9.22385763 14,9.5 C14,9.77614237 13.7761424,10 13.5,10 L13,10 Z" fill="#000000" opacity="0.3"></path>
        <path d="M9,18 C8.44771525,18 8,17.5522847 8,17 C8,16.4477153 8.44771525,16 9,16 C8.44771525,16 8,15.5522847 8,15 C8,14.4477153 8.44771525,14 9,14 L15,14 C15.5522847,14 16,14.4477153 16,15 C16,15.5522847 15.5522847,16 15,16 C15.5522847,16 16,16.4477153 16,17 C16,17.5522847 15.5522847,18 15,18 C15.5522847,18 16,18.4477153 16,19 C16,19.5522847 15.5522847,20 15,20 L9,20 C8.44771525,20 8,19.5522847 8,19 C8,18.4477153 8.44771525,18 9,18 Z" fill="#000000"></path>
    </g>
</svg>
